styles/2/Numix-Square/48x48/apps/shares.svg

<?xml version="1.0" encoding="UTF-8" standalone="no"?>
<svg
   xmlns:dc="http://purl.org/dc/elements/1.1/"
   xmlns:cc="http://creativecommons.org/ns#"
   xmlns:rdf="http://www.w3.org/1999/02/22-rdf-syntax-ns#"
   xmlns:svg="http://www.w3.org/2000/svg"
   xmlns="http://www.w3.org/2000/svg"
   xmlns:xlink="http://www.w3.org/1999/xlink"
   xmlns:sodipodi="http://sodipodi.sourceforge.net/DTD/sodipodi-0.dtd"
   xmlns:inkscape="http://www.inkscape.org/namespaces/inkscape"
   viewBox="0 0 48 48"
   id="svg4533"
   version="1.1"
   inkscape:version="0.91 r"
   width="100%"
   height="100%"
   sodipodi:docname="shares.svg">
  <metadata
     id="metadata4596">
    <rdf:RDF>
      <cc:Work
         rdf:about="">
        <dc:format>image/svg+xml</dc:format>
        <dc:type
           rdf:resource="http://purl.org/dc/dcmitype/StillImage" />
      </cc:Work>
    </rdf:RDF>
  </metadata>
  <sodipodi:namedview
     pagecolor="#ffffff"
     bordercolor="#666666"
     borderopacity="1"
     objecttolerance="10"
     gridtolerance="10"
     guidetolerance="10"
     inkscape:pageopacity="0"
     inkscape:pageshadow="2"
     inkscape:window-width="1280"
     inkscape:window-height="998"
     id="namedview4594"
     showgrid="true"
     inkscape:zoom="9.8333334"
     inkscape:cx="32.222103"
     inkscape:cy="22.015749"
     inkscape:window-x="0"
     inkscape:window-y="0"
     inkscape:window-maximized="1"
     inkscape:current-layer="svg4533">
    <inkscape:grid
       type="xygrid"
       id="grid7074" />
  </sodipodi:namedview>
  <defs
     id="defs4535">
    <linearGradient
       id="linearGradient3764"
       x1="1"
       x2="47"
       gradientUnits="userSpaceOnUse"
       gradientTransform="matrix(0,-1,1,0,-1.5e-6,47.999998)">
      <stop
         stop-color="#dc810c"
         stop-opacity="1"
         id="stop4538" />
      <stop
         offset="1"
         stop-color="#ef8b0d"
         stop-opacity="1"
         id="stop4540" />
    </linearGradient>
    <linearGradient
       inkscape:collect="always"
       xlink:href="#linearGradient3764"
       id="linearGradient5286"
       gradientUnits="userSpaceOnUse"
       gradientTransform="translate(-48,0.002215)"
       x1="1"
       x2="47" />
  </defs>
  <g
     id="g21">
    <path
       style="opacity:0.02000002"
       inkscape:connector-curvature="0"
       d="m 1,43 0,0.25 c 0,2.216 1.784,4 4,4 l 38,0 c 2.216,0 4,-1.784 4,-4 L 47,43 c 0,2.216 -1.784,4 -4,4 L 5,47 C 2.784,47 1,45.216 1,43 z m 0,0.5 0,0.5 c 0,2.216 1.784,4 4,4 l 38,0 c 2.216,0 4,-1.784 4,-4 l 0,-0.5 c 0,2.216 -1.784,4 -4,4 l -38,0 c -2.216,0 -4,-1.784 -4,-4 z"
       id="path23" />
    <path
       style="opacity:0.05"
       inkscape:connector-curvature="0"
       d="m 1,43.25 0,0.25 c 0,2.216 1.784,4 4,4 l 38,0 c 2.216,0 4,-1.784 4,-4 l 0,-0.25 c 0,2.216 -1.784,4 -4,4 l -38,0 c -2.216,0 -4,-1.784 -4,-4 z"
       id="path25" />
    <path
       style="opacity:0.1"
       inkscape:connector-curvature="0"
       d="m 1,43 0,0.25 c 0,2.216 1.784,4 4,4 l 38,0 c 2.216,0 4,-1.784 4,-4 L 47,43 c 0,2.216 -1.784,4 -4,4 L 5,47 C 2.784,47 1,45.216 1,43 z"
       id="path27" />
  </g>
  <rect
     id="rect31"
     transform="matrix(0,-1,1,0,0,0)"
     rx="4"
     y="1"
     x="-46.999996"
     height="46"
     width="46"
     style="fill:url(#linearGradient5286);fill-opacity:1.0" />
  <g
     id="g53">
    <g
       transform="translate(0,-1004.3622)"
       id="g55">
      <path
         style="opacity:0.1"
         inkscape:connector-curvature="0"
         d="m 1,1043.36 0,4 c 0,2.216 1.784,4 4,4 l 38,0 c 2.216,0 4,-1.784 4,-4 l 0,-4 c 0,2.216 -1.784,4 -4,4 l -38,0 c -2.216,0 -4,-1.784 -4,-4 z"
         id="path57" />
    </g>
  </g>
  <path
     inkscape:connector-curvature="0"
     style="opacity:0.1;fill:#000000;fill-opacity:1;fill-rule:nonzero;stroke:none"
     d="m 14.750018,14 c -0.391,0 -0.75,0.421843 -0.75,0.875 l 0,1.125 -1.09375,0 -0.09375,0 c -0.440999,0.04301 -0.8155,0.418726 -0.8125,0.84375 l 0,16.28125 c 0,0.453026 0.434251,0.875 0.90625,0.875 l 22.1875,0 c 0.468999,0 0.90625,-0.421974 0.90625,-0.875 l 0,-14.21875 C 36.000018,18.457227 35.561767,18 35.093768,18 l -1.09375,0 0,-3.125 c 0,-0.454175 -0.355,-0.875 -0.75,-0.875 l -18.5,0 z"
     id="path3060" />
  <path
     style="fill:#b29c9c;fill-opacity:1;fill-rule:nonzero;stroke:none"
     inkscape:connector-curvature="0"
     id="path57-5"
     d="m 14.000018,19 0,-5.132383 c 0,-0.453157 0.359,-0.867617 0.75,-0.867617 l 18.5,0 c 0.395,0 0.75,0.413442 0.75,0.867617 l 0,5.132383 m -20,0" />
  <path
     style="fill:#ecedf1;fill-opacity:1;fill-rule:nonzero;stroke:none"
     inkscape:connector-curvature="0"
     id="path59"
     d="m 12.813017,15 c -0.440999,0.04301 -0.815999,0.434024 -0.812999,0.859048 l 0,16.277904 c 0,0.453026 0.43,0.863048 0.901999,0.863048 l 22.199984,0 C 35.571,33 36,32.589978 36,32.136952 L 36,17.89416 C 36,17.445137 35.57,17 35.102001,17 l -9.101983,0 0,-1.124951 C 26.000018,15.426024 25.543008,15 25.075008,15 l -12.175991,0 c -0.027,0 -0.059,0 -0.09,0"
     sodipodi:nodetypes="ccsssssscsssc" />
  <path
     style="fill:#b29c9c;fill-opacity:1;fill-rule:nonzero;stroke:none"
     d="m 27.75,19 c -1.238,0 -2.25,1.008 -2.25,2.25 0,0.093 0.01925,0.19125 0.03125,0.28125 L 21.8125,23.375 C 21.4025,22.98 20.859,22.75 20.25,22.75 19.016,22.75 18,23.758 18,25 c 0,1.238 1.012,2.25 2.25,2.25 0.613,0 1.1565,-0.23 1.5625,-0.625 l 3.71875,1.84375 C 25.52025,28.55875 25.5,28.656 25.5,28.75 25.5,29.988 26.508,31 27.75,31 28.988,31 30,29.992 30,28.75 30,27.512 28.992,26.5 27.75,26.5 c -0.606,0 -1.1565,0.234 -1.5625,0.625 L 22.46875,25.28125 C 22.47175,25.19125 22.5,25.094 22.5,25 c 0,-0.093 -0.01925,-0.19125 -0.03125,-0.28125 L 26.1875,22.875 C 26.5945,23.266 27.145,23.5 27.75,23.5 28.988,23.5 30,22.492 30,21.25 30,20.012 28.992,19 27.75,19 z"
     id="path4588"
     inkscape:connector-curvature="0"
     sodipodi:nodetypes="ssccsssccssssccsccsss" />
</svg>

<svg xmlns="http://www.w3.org/2000/svg" viewBox="0 0 48 48">
 <defs>
  <linearGradient id="linearGradient5286" gradientUnits="userSpaceOnUse" gradientTransform="translate(-48,0.002215)" x1="1" x2="47">
   <stop style="stop-color:#dc810c;stop-opacity:1"/>
   <stop offset="1" style="stop-color:#ef8b0d;stop-opacity:1"/>
  </linearGradient>
 </defs>
 <g>
  <path d="m 1,43 0,0.25 c 0,2.216 1.784,4 4,4 l 38,0 c 2.216,0 4,-1.784 4,-4 L 47,43 c 0,2.216 -1.784,4 -4,4 L 5,47 C 2.784,47 1,45.216 1,43 z m 0,0.5 0,0.5 c 0,2.216 1.784,4 4,4 l 38,0 c 2.216,0 4,-1.784 4,-4 l 0,-0.5 c 0,2.216 -1.784,4 -4,4 l -38,0 c -2.216,0 -4,-1.784 -4,-4 z" style="opacity:0.02"/>
  <path d="m 1 43.25 0 0.25 c 0 2.216 1.784 4 4 4 l 38 0 c 2.216 0 4 -1.784 4 -4 l 0 -0.25 c 0 2.216 -1.784 4 -4 4 l -38 0 c -2.216 0 -4 -1.784 -4 -4 z" style="opacity:0.05"/>
  <path d="m 1,43 0,0.25 c 0,2.216 1.784,4 4,4 l 38,0 c 2.216,0 4,-1.784 4,-4 L 47,43 c 0,2.216 -1.784,4 -4,4 L 5,47 C 2.784,47 1,45.216 1,43 z" style="opacity:0.1"/>
 </g>
 <rect transform="matrix(0,-1,1,0,0,0)" rx="4" y="1" x="-47" height="46" width="46" style="fill:url(#linearGradient5286);fill-opacity:1"/>
 <g>
  <g transform="translate(0,-1004.3622)">
   <path d="m 1 1043.36 0 4 c 0 2.216 1.784 4 4 4 l 38 0 c 2.216 0 4 -1.784 4 -4 l 0 -4 c 0 2.216 -1.784 4 -4 4 l -38 0 c -2.216 0 -4 -1.784 -4 -4 z" style="opacity:0.1"/>
  </g>
 </g>
 <path d="m 14.75 14 c -0.391 0 -0.75 0.422 -0.75 0.875 l 0 1.125 -1.094 0 -0.094 0 c -0.441 0.043 -0.816 0.419 -0.813 0.844 l 0 16.281 c 0 0.453 0.434 0.875 0.906 0.875 l 22.19 0 c 0.469 0 0.906 -0.422 0.906 -0.875 l 0 -14.219 c 0 -0.449 -0.438 -0.906 -0.906 -0.906 l -1.094 0 0 -3.125 c 0 -0.454 -0.355 -0.875 -0.75 -0.875 l -18.5 0 z" style="fill:#000;opacity:0.1;fill-opacity:1;stroke:none;fill-rule:nonzero"/>
 <path d="m 14 19 0 -5.132 c 0 -0.453 0.359 -0.868 0.75 -0.868 l 18.5 0 c 0.395 0 0.75 0.413 0.75 0.868 l 0 5.132 m -20 0" style="fill:#b29c9c;fill-opacity:1;stroke:none;fill-rule:nonzero"/>
 <path d="m 12.813 15 c -0.441 0.043 -0.816 0.434 -0.813 0.859 l 0 16.278 c 0 0.453 0.43 0.863 0.902 0.863 l 22.2 0 c 0.469 0 0.898 -0.41 0.898 -0.863 l 0 -14.243 c 0 -0.449 -0.43 -0.894 -0.898 -0.894 l -9.102 0 0 -1.125 c 0 -0.449 -0.457 -0.875 -0.925 -0.875 l -12.176 0 c -0.027 0 -0.059 0 -0.09 0" style="fill:#ecedf1;fill-opacity:1;stroke:none;fill-rule:nonzero"/>
 <path d="m 27.75 19 c -1.238 0 -2.25 1.01 -2.25 2.25 0 0.093 0.019 0.191 0.031 0.281 l -3.719 1.844 c -0.41 -0.395 -0.953 -0.625 -1.563 -0.625 -1.234 0 -2.25 1.01 -2.25 2.25 c 0 1.238 1.012 2.25 2.25 2.25 0.613 0 1.157 -0.23 1.563 -0.625 l 3.719 1.844 c -0.011 0.09 -0.031 0.187 -0.031 0.281 0 1.238 1.01 2.25 2.25 2.25 1.238 0 2.25 -1.01 2.25 -2.25 0 -1.238 -1.01 -2.25 -2.25 -2.25 c -0.606 0 -1.157 0.234 -1.563 0.625 l -3.719 -1.844 c 0.003 -0.09 0.031 -0.187 0.031 -0.281 c 0 -0.093 -0.019 -0.191 -0.031 -0.281 l 3.719 -1.844 c 0.407 0.391 0.957 0.625 1.563 0.625 1.238 0 2.25 -1.01 2.25 -2.25 0 -1.238 -1.01 -2.25 -2.25 -2.25 z" style="fill:#b29c9c;fill-opacity:1;stroke:none;fill-rule:nonzero"/>
</svg>
